!!!SOCIAL_FUNCTION:	war songs
!!!PDT:	1922
!!!OTL: No_73_War_Song_(f).krn
!!!REG: Southwest
!!!LANG: Non-Tone
!!!LING_GROUP: Uto-Aztecan
**kern
*staff1
=1-
*clefF4
*k[]
*M2/4
16c\LK
[8.c\J
8.c\L]
16c\Jk
=2||
*M3/4
8c\L
8G\J
8d\L
8d\J
12c\L
12c\
12G\J
=3
8G\L
8G\J
8F\L
8F\J
16E\LK
8E\
16E\Jk
=4
2.E\
=5||
*M4/4
8F\L
8F\J
4F\
12G\L
12F\
12E\J
8E\L
16E\L
16E\JJ
=6||
*M3/4
8F\L
8F\J
4E\
12F\L
12F\
12F\J
=7||
*M2/4
8E\L
8E\J
8C/L
8C/J
=8
2C/
=9||
*M3/4
8E\L
8E\J
4E\
12F\L
12E\
12C\J
=10||
*M2/4
8E\L
8E\J
8C/L
8C/J
=11
2C/
==
*-
